docs/icons/google.svg

<svg xmlns="http://www.w3.org/2000/svg" xmlns:xlink="http://www.w3.org/1999/xlink" width="30" height="30" fill="none" xmlns:v="https://vecta.io/nano"><defs><path id="A" d="M0 0h30v30H0z"/><path id="B" d="M0 0h22v22H0z"/></defs><g transform="matrix(1 0 0 1 0 0)"><mask id="D" fill="#fff"><use xlink:href="#A"/></mask><g mask="url(#D)"><g transform="matrix(1 0 0 1 4 4)"><mask id="D" fill="#fff"><use xlink:href="#B"/></mask><g mask="url(#D)" fill-rule="evenodd"><path transform="matrix(1 0 0 1 .100822 6.235167)" d="M4.83 2.77L1.13 0A10.52 10.52 0 0 0 0 4.76a10.61 10.61 0 0 0 1.13 4.77l3.7-2.78a6.11 6.11 0 0 1-.33-1.99 6.29 6.29 0 0 1 .33-1.99z" fill="#fbbc05"/><path transform="matrix(1 0 0 1 1.228333 .24475)" d="M13.92 5.82l3.2-3.13C15.17 1.03 12.67 0 9.87 0 5.53 0 1.79 2.43 0 5.99l3.7 2.77C4.56 6.22 6.99 4.4 9.87 4.4a6.45 6.45 0 0 1 4.05 1.42z" fill="#ea4335"/><path transform="matrix(1 0 0 1 1.228333 12.9965)" d="M9.87 4.36C6.99 4.36 4.55 2.54 3.7 0L0 2.77c1.79 3.56 5.52 5.99 9.87 5.99 2.68 0 5.25-.93 7.17-2.68l-3.52-2.66c-.99.61-2.23.94-3.65.94z" fill="#34a853"/><path transform="matrix(1 0 0 1 11.099917 9.04475)" d="M10.25 0H0v4.16h5.9c-.29 1.41-1.1 2.5-2.25 3.21l3.52 2.66c2.02-1.84 3.33-4.57 3.33-8.07 0-.64-.1-1.32-.25-1.96z" fill="#4285f4"/></g></g></g></g></svg>

<svg xmlns="http://www.w3.org/2000/svg" xmlns:xlink="http://www.w3.org/1999/xlink" width="30" height="30" viewBox="0 0 30 30" fill="none"><defs><rect id="path_0" x="0" y="0" width="30" height="30" /><rect id="path_1" x="0" y="0" width="22" height="22" /></defs><g opacity="1" transform="translate(0 0)  rotate(0 15 15)"><mask id="bg-mask" fill="white"><use xlink:href="#path_0"></use></mask><g mask="url(#bg-mask)" ><path id="矩形 1" fill-rule="evenodd"  transform="translate(0 0)  rotate(0 15 15)" opacity="1" d="M0,30L30,30L30,0L0,0L0,30Z " /><g opacity="1" transform="translate(4 4)  rotate(0 11 11)"><mask id="bg-mask" fill="white"><use xlink:href="#path_1"></use></mask><g mask="url(#bg-mask)" ><path id="路径 1" fill-rule="evenodd" style="fill:#FBBC05" transform="translate(0.10082228186503484 6.235166673828124)  rotate(0 2.41450552215342 4.763000000000001)" opacity="1" d="M4.83,2.77L1.13,0C0.38,1.48 0,3.11 0,4.76C0,6.48 0.41,8.09 1.13,9.53L4.83,6.75C4.61,6.11 4.5,5.44 4.5,4.76C4.5,4.07 4.62,3.4 4.83,2.77Z " /><path id="路径 2" fill-rule="evenodd" style="fill:#EA4335" transform="translate(1.2283333261718765 0.2447499999999998)  rotate(0 8.560749999999999 4.3793750000000005)" opacity="1" d="M13.92,5.82L17.12,2.69C15.17,1.03 12.67,0 9.87,0C5.53,0 1.79,2.43 0,5.99L3.7,8.76C4.56,6.22 6.99,4.4 9.87,4.4C11.42,4.4 12.82,4.94 13.92,5.82Z " /><path id="路径 3" fill-rule="evenodd" style="fill:#34A853" transform="translate(1.2283333261718754 12.996500000000003)  rotate(0 8.519499999999999 4.379375)" opacity="1" d="M9.87 4.36C6.99 4.36 4.55 2.54 3.7 0L0 2.77C1.79 6.33 5.52 8.76 9.87 8.76C12.55 8.76 15.12 7.83 17.04 6.08L13.52 3.42C12.53 4.03 11.29 4.36 9.87 4.36Z" /><path id="路径 4" fill-rule="evenodd" style="fill:#4285F4" transform="translate(11.099916673828124 9.044749999999999)  rotate(0 5.250208326171875 5.015083336914062)" opacity="1" d="M10.25,0L0,0L0,4.16L5.9,4.16C5.61,5.57 4.8,6.66 3.65,7.37L7.17,10.03C9.19,8.19 10.5,5.46 10.5,1.96C10.5,1.32 10.4,0.64 10.25,0Z " /></g></g></g></g></svg>
